X:5115
T:The Head Staggers
M:4/4
R:Reel
L:1/8
Q:180
C:Aidan Crossey
K:A
|:A2cA EA c<e|a2gf e2 c<e|d2Bd c2ec|BcdB AGF<E|
A2cA EA c<e|defg (3aba gf|ec A<c dB G<B|(3Ace (3aec A4:||
|:ae c<e fe c<e|dBcA BG E<G|ABcd ec e<a|(3aba (3gag (3fef (3efg|
ae c<e fe c<e|dBcA BG E<G|ABcd ec e<a|(3gfe (3cdB A4:||
